!!!OTL: ICH SAH EIN ROESCHEN AM WEGE STEHN
!!!ARE: Europa, Mitteleuropa, Deutschland
!!!SCT: B0384
!!!YEM: Copyright 1995, estate of Helmut Schaffrath.
**kern
*ICvox
*Ivox
*M4/4
*k[f#]
*G:
{8d
8g
8a
=1
4b
4.b
8dd
8a
8b
=2
2g
8r}
{8g
8a
8b
=3
4a
4.dd
8cc#
8b
8cc#
=4
2dd
8r}
{8dd
8dd
8dd
=5
4dd
4g#
8r
8b
8ee
8dd
=6
4dd
4cc
8r}
{8a
8b
8cc
=7
4dd
4b
8r
8b
8a
8dd
=8
2b
8r}
{8b
8cc
8dd
=9
4ee
8cc
8a
4dd
4f#
=10
2g
8r}
==
!!!AGN: Liebes - Lied, Liebes - Lust
!!!ONB: ESAC (Essen Associative Code) Database: BOEHME
!!!AMT: simple quadruple
!!!AIN: vox
!!!EED: Helmut Schaffrath
!!!EEV: 1.0
*-
